clinic_management/media/paraclinical_results/màu-kỷ-yếu-trong-vcl.xmp
<x:xmpmeta xmlns:x="adobe:ns:meta/" x:xmptk="Adobe XMP Core 7.0-c000 1.000000, 0000/00/00-00:00:00        ">
 <rdf:RDF xmlns:rdf="http://www.w3.org/1999/02/22-rdf-syntax-ns#">
  <rdf:Description rdf:about=""
    xmlns:crs="http://ns.adobe.com/camera-raw-settings/1.0/"
   crs:PresetType="Normal"
   crs:Cluster=""
   crs:UUID="537AA5609C8DC84D932D08A22407DF3C"
   crs:SupportsAmount="True"
   crs:SupportsColor="True"
   crs:SupportsMonochrome="True"
   crs:SupportsHighDynamicRange="True"
   crs:SupportsNormalDynamicRange="True"
   crs:SupportsSceneReferred="True"
   crs:SupportsOutputReferred="True"
   crs:RequiresRGBTables="False"
   crs:CameraModelRestriction=""
   crs:Copyright=""
   crs:ContactInfo=""
   crs:Version="14.2"
   crs:ProcessVersion="11.0"
   crs:WhiteBalance="Custom"
   crs:Temperature="6200"
   crs:Tint="+12"
   crs:Exposure2012="-0.70"
   crs:Contrast2012="-23"
   crs:Highlights2012="-70"
   crs:Shadows2012="+6"
   crs:Whites2012="+28"
   crs:Blacks2012="+37"
   crs:Texture="-5"
   crs:Clarity2012="-5"
   crs:Dehaze="+9"
   crs:Vibrance="+33"
   crs:Saturation="-4"
   crs:ParametricShadows="-5"
   crs:ParametricDarks="+26"
   crs:ParametricLights="+15"
   crs:ParametricHighlights="-25"
   crs:ParametricShadowSplit="20"
   crs:ParametricMidtoneSplit="40"
   crs:ParametricHighlightSplit="87"
   crs:Sharpness="57"
   crs:SharpenRadius="+0.8"
   crs:SharpenDetail="30"
   crs:SharpenEdgeMasking="30"
   crs:LuminanceSmoothing="0"
   crs:ColorNoiseReduction="25"
   crs:ColorNoiseReductionDetail="50"
   crs:ColorNoiseReductionSmoothness="50"
   crs:HueAdjustmentRed="0"
   crs:HueAdjustmentOrange="+5"
   crs:HueAdjustmentYellow="+22"
   crs:HueAdjustmentGreen="+22"
   crs:HueAdjustmentAqua="-10"
   crs:HueAdjustmentBlue="0"
   crs:HueAdjustmentPurple="0"
   crs:HueAdjustmentMagenta="0"
   crs:SaturationAdjustmentRed="-10"
   crs:SaturationAdjustmentOrange="-8"
   crs:SaturationAdjustmentYellow="-17"
   crs:SaturationAdjustmentGreen="-57"
   crs:SaturationAdjustmentAqua="-35"
   crs:SaturationAdjustmentBlue="-78"
   crs:SaturationAdjustmentPurple="-50"
   crs:SaturationAdjustmentMagenta="-50"
   crs:LuminanceAdjustmentRed="-9"
   crs:LuminanceAdjustmentOrange="+11"
   crs:LuminanceAdjustmentYellow="-5"
   crs:LuminanceAdjustmentGreen="+38"
   crs:LuminanceAdjustmentAqua="-5"
   crs:LuminanceAdjustmentBlue="+15"
   crs:LuminanceAdjustmentPurple="+10"
   crs:LuminanceAdjustmentMagenta="+10"
   crs:SplitToningShadowHue="45"
   crs:SplitToningShadowSaturation="5"
   crs:SplitToningHighlightHue="230"
   crs:SplitToningHighlightSaturation="7"
   crs:SplitToningBalance="+75"
   crs:ColorGradeMidtoneHue="0"
   crs:ColorGradeMidtoneSat="0"
   crs:ColorGradeShadowLum="0"
   crs:ColorGradeMidtoneLum="0"
   crs:ColorGradeHighlightLum="0"
   crs:ColorGradeBlending="100"
   crs:ColorGradeGlobalHue="0"
   crs:ColorGradeGlobalSat="0"
   crs:ColorGradeGlobalLum="0"
   crs:AutoLateralCA="0"
   crs:LensProfileEnable="0"
   crs:LensManualDistortionAmount="0"
   crs:VignetteAmount="0"
   crs:DefringePurpleAmount="0"
   crs:DefringePurpleHueLo="30"
   crs:DefringePurpleHueHi="70"
   crs:DefringeGreenAmount="0"
   crs:DefringeGreenHueLo="40"
   crs:DefringeGreenHueHi="60"
   crs:PerspectiveUpright="0"
   crs:PerspectiveVertical="0"
   crs:PerspectiveHorizontal="0"
   crs:PerspectiveRotate="0.0"
   crs:PerspectiveAspect="0"
   crs:PerspectiveScale="100"
   crs:PerspectiveX="0.00"
   crs:PerspectiveY="0.00"
   crs:GrainAmount="0"
   crs:PostCropVignetteAmount="0"
   crs:ShadowTint="0"
   crs:RedHue="+2"
   crs:RedSaturation="-7"
   crs:GreenHue="+2"
   crs:GreenSaturation="+19"
   crs:BlueHue="0"
   crs:BlueSaturation="+50"
   crs:OverrideLookVignette="False"
   crs:ToneCurveName2012="Custom"
   crs:HasSettings="True"
   crs:CropConstrainToWarp="0"
   crs:AsShotTemperature="5950"
   crs:AsShotTint="9">
   <crs:Name>
    <rdf:Alt>
     <rdf:li xml:lang="x-default">màu kỷ yếu trong vcl </rdf:li>
    </rdf:Alt>
   </crs:Name>
   <crs:ShortName>
    <rdf:Alt>
     <rdf:li xml:lang="x-default"/>
    </rdf:Alt>
   </crs:ShortName>
   <crs:SortName>
    <rdf:Alt>
     <rdf:li xml:lang="x-default"/>
    </rdf:Alt>
   </crs:SortName>
   <crs:Group>
    <rdf:Alt>
     <rdf:li xml:lang="x-default">Danh Toan</rdf:li>
    </rdf:Alt>
   </crs:Group>
   <crs:Description>
    <rdf:Alt>
     <rdf:li xml:lang="x-default"/>
    </rdf:Alt>
   </crs:Description>
   <crs:ToneCurvePV2012>
    <rdf:Seq>
     <rdf:li>0, 0</rdf:li>
     <rdf:li>255, 255</rdf:li>
    </rdf:Seq>
   </crs:ToneCurvePV2012>
   <crs:ToneCurvePV2012Red>
    <rdf:Seq>
     <rdf:li>0, 0</rdf:li>
     <rdf:li>42, 34</rdf:li>
     <rdf:li>91, 96</rdf:li>
     <rdf:li>130, 144</rdf:li>
     <rdf:li>199, 204</rdf:li>
     <rdf:li>255, 255</rdf:li>
    </rdf:Seq>
   </crs:ToneCurvePV2012Red>
   <crs:ToneCurvePV2012Green>
    <rdf:Seq>
     <rdf:li>0, 0</rdf:li>
     <rdf:li>41, 35</rdf:li>
     <rdf:li>108, 118</rdf:li>
     <rdf:li>156, 166</rdf:li>
     <rdf:li>214, 216</rdf:li>
     <rdf:li>255, 252</rdf:li>
    </rdf:Seq>
   </crs:ToneCurvePV2012Green>
   <crs:ToneCurvePV2012Blue>
    <rdf:Seq>
     <rdf:li>0, 0</rdf:li>
     <rdf:li>41, 33</rdf:li>
     <rdf:li>87, 88</rdf:li>
     <rdf:li>135, 146</rdf:li>
     <rdf:li>176, 184</rdf:li>
     <rdf:li>224, 225</rdf:li>
     <rdf:li>255, 250</rdf:li>
    </rdf:Seq>
   </crs:ToneCurvePV2012Blue>
   <crs:Look>
    <rdf:Description
     crs:Name="Adobe Color"
     crs:Amount="1"
     crs:UUID="B952C231111CD8E0ECCF14B86BAA7077"
     crs:SupportsAmount="false"
     crs:SupportsMonochrome="false"
     crs:SupportsOutputReferred="false"
     crs:Copyright="© 2018 Adobe Systems, Inc."
     crs:Stubbed="true">
    <crs:Group>
     <rdf:Alt>
      <rdf:li xml:lang="x-default">Profiles</rdf:li>
     </rdf:Alt>
    </crs:Group>
    </rdf:Description>
   </crs:Look>
  </rdf:Description>
 </rdf:RDF>
</x:xmpmeta>
